devnet/lgns_2068762-1/logos/lgns_2068762-1.svg

<svg xmlns="http://www.w3.org/2000/svg" width="1209" height="678" fill="none" xmlns:v="https://vecta.io/nano"><path d="M440.526 677.647h5.585l.23-5.676 21.2-522.243 266.394 284.808-162.269 233.778-6.477 9.333h11.232H904.32h5.842l-.022-5.943-1.011-270.209 200.491 273.769 1.74 2.383h2.92 82.6 11.59l-6.92-9.455L883 233.189l-4.794-6.545-4.626 6.667-93.903 135.298L440.026 5.42 434.957 0l-4.02 6.263L5.877 668.491 0 677.647h10.749 429.777z" fill="#be1e2e"/></svg>

<svg width="1209" height="678" viewBox="0 0 1209 678" fill="none" xmlns="http://www.w3.org/2000/svg">
<path d="M440.526 677.647H446.111L446.341 671.971L467.541 149.728L733.935 434.536L571.666 668.314L565.189 677.647H576.421H904.32H910.162L910.14 671.704L909.129 401.495L1109.62 675.264L1111.36 677.647H1114.28H1196.88H1208.47L1201.55 668.192L883 233.189L878.206 226.644L873.58 233.311L779.677 368.609L440.026 5.41953L434.957 0L430.937 6.26327L5.87674 668.491L0 677.647H10.7492H440.526Z" fill="#BE1E2E"/>
</svg>
